X:1
T:Title
L:1/8
Q:1/4=75
M:6/8
K:F
V:1 treble nm="Church Organ, Staff"
V:1
 CFG A2 A | AFG A3 | ACA GCG | F3 .F3 | FBc d2 d | dc=B c3 | cGc dGd | c3 c3 | CEG B2 B | %9
w: By~Driscol~~Brown * * * *|||||||||
 AB/c/B/A/- A2 z/ C/- | C/EGB/- B z/ BA/- | AB/c/B/A/- A2 z/ c/- | c/ccA/- A/GFF/- | %13
w: ||||
 F/GFd/- d2 z/ c/- | c/AFC/- C z/ cc/- | c2- c/c/- c2 z |] %16
w: |||

